X:12070
T:Norwegian Reila:nder
R:Schottis
H:Norwegian Reila:nder
Z:Transcribed by Henrik Norbeck.
K:Am
M:C|
ABcd e2e2|ed^fd e2c2|cBdB c2A2|BAGB A2A2|
ABcd e2e2|ed^fd e2c2|cBdB c2A2|BAGB A4:|
|:a2a2 a2ba|^g2e2 e3^c|d^cB^c de^fa|^g2e2 e4|
a2a2 a2ba|^g^fe^d e3^c|d2e^c dB^GB|A2A2 A4:|
|:a2a2 g3f|edef ecAB|c2c2 defd|efed e^f^ge|
a2a2 g3f|edef ecAB|c2c2 BAGB|A2A2 A4:|
